!!!!SEGMENT: pl-kk--kk-i-1--026_anonim--offertorium-diffusa-est-gratia.krn
!!!cenid: 15xx:739
!!!COM: Anonim
!!!COM-rismID: pe30004985
!!!CDT:
!!!CNT:
!!!OTL: Offertorium/Diffusa est gratia
!!!PDT:
!!!AGN:
!!!SMS-siglum: PL-Kk
!!!SMS-shelfmark: Kk.I.1
!!!SMS-shelfwork: 026 W
!!!SMS-variant:
!!!SMS-altvar:
!!!NIFC-rismSourceID: 300257954
!!!NIFC-rismChildID: 300257980
!!!NIFC-islandoraID: pl-kk:1
!!!URL-pdf-islandora: https://repozytorium.nifc.pl/islandora/object/pl-kk%3A1/datastream/PDF/view
!!!URL-scan: https://polish.musicsources.pl/pl/lokalizacje/galeria/rekopisy/5736 @EN{Scan on Polish Music Sources Website} @PL{Skany w portalu Dziedzictwo Muzyki Polskiej w otwartym dostępie}
!!!ONB-nifc: UWAGA: Cantus (s. 113r-114r, skan 0115-0116), Altus (s. 108r-109r, skan 0301-0302), Tenor (s. 98v-99r, skan 0489), Bassus (s. 103r-104r, skan 0665-0666).
!!!AIN: 1 alto 1 bass 1 soprn 1 tenor
!!!key: G:mix
**kern	**text	**kern	**text	**kern	**text	**kern	**text
*part4	*part4	*part3	*part3	*part2	*part2	*part1	*part1
*staff4	*staff4	*staff3	*staff3	*staff2	*staff2	*staff1	*staff1
*I"BASSVS	*	*I"TENOR	*	*I"ALTVS	*	*I"CANTVS	*
*I'B	*	*I'T	*	*I'A	*	*I'S	*
*ICvox	*	*ICvox	*	*ICvox	*	*ICvox	*
*Ibass	*	*Itenor	*	*Ialto	*	*Isoprn	*
*clefF4	*	*clefC4	*	*clefC4	*	*clefC3	*
*G:mix	*	*G:mix	*	*G:mix	*	*G:mix	*
*k[]	*	*k[]	*	*k[]	*	*k[]	*
*M2/1	*	*M2/1	*	*M2/1	*	*M2/1	*
*met(c)	*	*met(c)	*	*met(c)	*	*met(c)	*
=1	=1	=1	=1	=1	=1	=1	=1
!	!	!	!	!LO:TX:t=P:problem= Altus zapisany w kluczu tenorowym	!	!	!
!	!	!	!	!	!	!LO:TX:t=P:problem= Cantus zapisany w kluczu altowym	!
!LO:TX:a:t=Off(iciu)m	!	!LO:TX:a:t=Off(iciu)m	!	!	!	!	!
*	*	*lig	*	*	*	*	*
*xywh-#665:5970,1410,4099,784	*	*xywh-#489:1438,1964,4114,872	*	*xywh-#301:6170,2187,4171,855	*	*xywh-#115:6056,2188,4136,793	*
!	!	!	!	!LO:TX:a:t=Off(iciu)m	!	!LO:TX:a:t=Off(iciu)m	!
1r	.	1D	Dif-	1r	.	2.d\	Dif-
.	.	.	.	.	.	4c/	.
2.D/	Dif-	1F	.	2r	.	4d\	.
.	.	.	.	.	.	4e\	.
.	.	.	.	2.A/	Dif-	1f	.
4C/	.	.	.	.	.	.	.
*	*	*Xlig	*	*	*	*	*
=2	=2	=2	=2	=2	=2	=2	=2
*	*	*lig	*	*	*	*	*
4D/	.	1F	-fu-	.	.	.	.
4E/	.	.	.	4G/	.	.	.
1F	.	.	.	4A/	.	4e\	.
.	.	.	.	4B/	.	4d\	.
.	.	1G	.	1c	.	4c/	-fu-
.	.	.	.	.	.	4d/	.
2E\	.	.	.	.	.	4e\	.
.	.	.	.	.	.	4c/	.
*	*	*Xlig	*	*	*	*	*
=3	=3	=3	=3	=3	=3	=3	=3
1D	-fu-	1A	.	2A/	.	4d\	.
.	.	.	.	.	.	4e\	.
*	*	*	*	*	*	*custos:e	*
.	.	.	.	2d\	.	2f\	-ſa
*	*	*lig	*	*	*	*	*
*	*	*	*	*	*	*xywh-#115:6044,2907,4113,898	*
!	!	!	!	!	!	!LO:LB:g=orignal	!
1E	-ſa	1G	.	2B/	.	1e	eſt,
.	.	.	.	2.c\	-fu-	.	.
=4	=4	=4	=4	=4	=4	=4	=4
1AA	eſt	1A	.	.	.	2r	.
.	.	.	.	4d\	-ſa	.	.
*	*	*	*	*	*	*	*ij
*	*	*	*	*custos:A	*	*	*
.	.	.	.	2e\	.	2c/	dif-
!	!	!	!	!LO:LB:g=orignal	!	!	!
*	*	*Xlig	*	*	*	*	*
*	*ij	*lig	*	*	*	*	*
*	*	*	*	*xywh-#301:6129,2943,4171,925	*	*	*
2r	.	1F	-ſa	1A	eſt	2.f\	-fu-
*custos:F	*	*	*	*	*	*	*
2D/	dif-	.	.	.	.	.	.
.	.	.	.	.	.	4e\	.
!LO:LB:g=orignal	!	!	!	!	!	!	!
=5	=5	=5	=5	=5	=5	=5	=5
*xywh-#665:5840,2111,4193,884	*	*	*	*	*	*	*
2.F\	-fu-	1A	.	2r	.	2c/	.
*	*	*	*	*	*ij	*	*
.	.	.	.	2A/	di-	2d\	.
4E/	.	.	.	.	.	.	.
*	*	*Xlig	*	*	*	*	*
2C/	-ſa	1G	eſt	2c\	.	2e\	.
2D/	.	.	.	2.B\	-fu-	1d	.
=6	=6	=6	=6	=6	=6	=6	=6
1E	eſt	1G	.	.	.	.	.
.	.	.	.	4A/	.	.	.
.	.	.	.	1G	.	2c/	-ſa
*	*Xij	*lig	*	*	*	*	*
1D	.	1A	gra-	.	.	2d\	eſt
.	.	.	.	2F/	-ſa	2f\	.
=7	=7	=7	=7	=7	=7	=7	=7
2.C/	gra-	1c	.	1G	eſt	2e\	gra-
.	.	.	.	.	.	1c	.
4C/	-ti-	.	.	.	.	.	.
*	*	*Xlig	*	*	*Xij	*	*
*	*	*lig	*	*	*	*	*
1GG	-a,	1d	.	1.G	gra-	.	.
.	.	.	.	.	.	2B/	.
=8	=8	=8	=8	=8	=8	=8	=8
*	*	*custos:c	*	*	*	*	*
*	*ij	*	*	*	*	*	*
1C	dif-	1c	.	.	.	2.c/	.
.	.	.	.	2G/	-ti-	.	.
.	.	.	.	.	.	4d\	-ti-
!	!	!LO:LB:g=orignal	!	!	!	!	!
*	*	*Xlig	*	*	*	*	*
*	*	*lig	*	*	*	*	*
*	*	*xywh-#489:1368,2664,4206,918	*	*	*	*	*
2.AA/	-fu-	1c	-ti-	2.A/	-a	1e	-a
4BB/	.	.	.	4G/	.	.	.
=9	=9	=9	=9	=9	=9	=9	=9
2C/	-ſa	1A	-­-	2E/	.	0r	.
1D	eſt	.	.	4F/	gra-	.	.
.	.	.	.	4G/	.	.	.
*	*	*Xlig	*	*	*	*	*
*	*	*lig	*	*	*	*	*
.	.	1A	-a,	4A/	.	.	.
.	.	.	.	4B\	.	.	.
2C/	gra-	.	.	4c\	.	.	.
.	.	.	.	4A\	.	.	.
=10	=10	=10	=10	=10	=10	=10	=10
1BB	-ti-	1G	.	4B\	.	2r	.
*	*	*	*	*custos:d	*	*	*
.	.	.	.	4c\	.	.	.
*	*	*	*	*xywh-#302:1377,672,4149,820	*	*	*
!	!	!	!	!LO:LB:g=orignal	!	!	!
.	.	.	.	2d\	.	2d\	in
*	*	*	*	*	*	*custos:f	*
*	*	*Xlig	*	*	*	*	*
*	*	*	*	*	*	*xywh-#116:1453,690,4142,811	*
2AA/	-a	1A	in	2c\	-ti-	2f\	la-
*	*Xij	*	*	*	*	*	*
!	!	!	!	!	!	!LO:LB:g=orignal	!
2D/	in	.	.	2A/	-a	2f\	-bi-
=11	=11	=11	=11	=11	=11	=11	=11
*custos:F	*	*	*	*	*	*	*
*	*	*lig	*	*	*	*	*
2F\	la-	1A	la-	2r	.	1c	-is
*xywh-#665:5840,2919,4323,766	*	*	*	*	*	*	*
!LO:LB:g=orignal	!	!	!	!	!	!	!
2F\	-bi-	.	.	2A/	in-	.	.
1C	-is	1G	.	2c\	-la-	0e	tu-
.	.	.	.	2c\	-bi-	.	.
*	*	*Xlig	*	*	*	*	*
=12	=12	=12	=12	=12	=12	=12	=12
*lig	*	*lig	*	*	*	*	*
1C	tu-	1c	.	1G	-is	.	.
1D	.	1A	.	2.F/	tu-	1d	-is,
.	.	.	.	4G/	.	.	.
*Xlig	*	*Xlig	*	*	*	*	*
=13	=13	=13	=13	=13	=13	=13	=13
*	*	*lig	*	*	*	*	*
1AA	-is,	1c	.	1A	.	2r	.
.	.	.	.	.	.	2e\	in
2r	.	1d	.	1D	-is,	2f\	la-
*	*ij	*	*	*	*	*	*
2D/	in	.	.	.	.	2f\	-bi-
*	*	*Xlig	*	*	*	*	*
=14	=14	=14	=14	=14	=14	=14	=14
2F\	la-	1c	.	2r	.	2c/	-is
2F\	-bi-	.	.	2A/	in	1f	tu-
*	*	*lig	*	*	*	*	*
1C	-is	1c	-bi-	2c\	la-	.	.
.	.	.	.	2G/	-bi-	2e\	.
=15	=15	=15	=15	=15	=15	=15	=15
1D	tu-	1A	.	2.d\	-is	1f	.
.	.	.	.	4c\	.	.	.
*	*	*Xlig	*	*	*	*	*
1GG	-is	1G	-is	4B\	.	1d	.
.	.	.	.	2c\	.	.	.
*	*	*	*	*custos:c	*	*	*
.	.	.	.	4B\	tu-	.	.
*	*Xij	*	*	*	*	*	*
!	!	!	!	!LO:LB:g=orignal	!	!	!
=16	=16	=16	=16	=16	=16	=16	=16
*	*	*	*	*xywh-#302:1353,1419,4215,850	*	*	*
2r	.	1A	.	1c	-is,	0c	-is
2AA/	in	.	.	.	.	.	.
*	*	*lig	*	*	*ij	*	*Xij
2C/	la-	1G	tu-	1r	.	.	.
2C/	-bi-	.	.	.	.	.	.
=17	=17	=17	=17	=17	=17	=17	=17
2FF/	-is	1c	.	2r	.	0r	.
1F	tu-	.	.	2A/	in	.	.
*	*	*Xlig	*	*	*	*	*
*	*	*lig	*	*	*	*	*
.	.	1A	.	2c\	la-	.	.
4E\	.	.	.	2c\	-bi-	.	.
4D\	.	.	.	.	.	.	.
=18	=18	=18	=18	=18	=18	=18	=18
2E\	.	1G	.	2G/	-is	2r	.
2C/	.	.	.	2c\	tu-	2e\	in
*custos:E	*	*	*	*	*	*	*
*	*	*Xlig	*	*	*	*	*
*	*	*lig	*	*	*	*	*
*xywh-#666:1191,563,4197,866	*	*	*	*	*	*	*
1E	.	1G	-is,	2.B\	.	2g\	la-
.	.	.	.	.	.	2g\	-bi-
.	.	.	.	4c\	.	.	.
!LO:LB:g=orignal	!	!	!	!	!	!	!
=19	=19	=19	=19	=19	=19	=19	=19
1D	-is,	1A	.	4d\	.	2d/	-is
.	.	.	.	4A/	.	.	.
.	.	.	.	1d	.	1f	tu-
*	*	*	*	*	*	*custos:e	*
*	*	*Xlig	*	*	*	*	*
*	*	*lig	*	*	*	*	*
1r	.	1G	.	.	.	.	.
*	*	*	*	*	*	*xywh-#116:1447,1432,4119,787	*
.	.	.	.	4c\	.	2e\	.
.	.	.	.	4B\	.	.	.
!	!	!	!	!	!	!LO:LB:g=orignal	!
=20	=20	=20	=20	=20	=20	=20	=20
*	*	*custos:G	*	*	*	*	*
0r	.	1F	.	4A/	.	2.f\	.
.	.	.	.	4B/	.	.	.
.	.	.	.	1c	.	.	.
.	.	.	.	.	.	4e\	.
!	!	!LO:LB:g=orignal	!	!	!	!	!
*	*	*Xlig	*	*	*	*	*
*	*	*lig	*	*	*	*	*
*	*	*xywh-#489:5942,551,4189,907	*	*	*	*	*
.	.	1G	prop-	.	.	1d	.
.	.	.	.	2B\	.	.	.
=21	=21	=21	=21	=21	=21	=21	=21
*lig	*	*	*	*	*	*	*
1C	prop-	1c	.	2c\	-is	2c/	-is,
*	*	*	*	*	*Xij	*	*
.	.	.	.	2G/	prop-	2g\	.
*	*	*Xlig	*	*	*	*	*
*	*	*lig	*	*	*	*	*
*	*	*	*	*custos:c	*	*	*
1F	.	1c	-ter-	2A/	-te-	2f\	prop-
*	*	*	*	*xywh-#302:1359,2227,4191,747	*	*	*
!	!	!	!	!LO:LB:g=orignal	!	!	!
.	.	.	.	1c	-e-	2.a\	-ter-
*Xlig	*	*	*	*	*	*	*
=22	=22	=22	=22	=22	=22	=22	=22
2F\	-ter-	1d	.	.	.	.	.
.	.	.	.	.	.	4g\	.
2G\	.	.	.	2B\	.	1g	.
*lig	*	*Xlig	*	*	*	*	*
*	*	*lig	*	*	*	*	*
1A	-e-	1c	-e-	2A/	.	.	.
.	.	.	.	1c	.	2f\	.
=23	=23	=23	=23	=23	=23	=23	=23
1G	.	1d	.	.	.	1g	.
.	.	.	.	2B\	.	.	.
*Xlig	*	*Xlig	*	*	*	*	*
1C	-a,	1c	.	2c\	-a	1e	-a
.	.	.	.	1G	be-	.	.
=24	=24	=24	=24	=24	=24	=24	=24
*	*	*lig	*	*	*	*	*
1.C	be-	1c	-a	.	.	1.e	be-
.	.	.	.	2G/	-ne-	.	.
.	.	1G	.	1c	-di-	.	.
2C/	-ne-	.	.	.	.	2e\	-ne-
*	*	*Xlig	*	*	*	*	*
=25	=25	=25	=25	=25	=25	=25	=25
1F	-di-	1A	,	2A/	-xit	1f	-di-
.	.	.	.	1c	.	.	.
*	*	*lig	*	*	*	*	*
0C	-xit,	1G	be-	.	.	0e	-xit,
.	.	.	.	4B\	te	.	.
.	.	.	.	4A\	.	.	.
=26	=26	=26	=26	=26	=26	=26	=26
.	.	1c	.	4G/	.	.	.
.	.	.	.	4E/	.	.	.
.	.	.	.	2.e\	De-	.	.
*lig	*	*Xlig	*	*	*	*	*
*	*	*lig	*	*	*	*	*
1D	be-	1A	-ne-	.	.	2r	.
.	.	.	.	4d\	.	.	.
.	.	.	.	1d	.	2f\	be-
=27	=27	=27	=27	=27	=27	=27	=27
1E	.	1G	.	.	.	2e\	-ne-
*	*	*	*	*	*	*custos:f	*
.	.	.	.	2c\	.	1g	-di-
!	!	!	!	!	!	!LO:LB:g=orignal	!
*Xlig	*	*Xlig	*	*	*	*	*
*	*	*lig	*	*	*	*	*
1D	-ne-	1A	-di-	1d	-us,	.	.
*	*	*	*	*	*	*xywh-#116:1459,2173,4154,811	*
.	.	.	.	.	.	2f\	.
=28	=28	=28	=28	=28	=28	=28	=28
*	*	*	*	*custos:G	*	*	*
1C	-di-	1c	.	0.G	.	2e\	.
.	.	.	.	.	.	1c	.
*	*	*Xlig	*	*	*	*	*
*	*	*lig	*	*	*	*	*
2GG/	-xit	1d	.	.	.	.	.
2GG/	te,	.	.	.	.	2B/	.
!	!	!	!	!LO:LB:g=orignal	!	!	!
=29	=29	=29	=29	=29	=29	=29	=29
*custos:F	*	*	*	*	*	*	*
0C	De-	1c	.	.	.	2c/	-xit
.	.	.	.	.	.	1g	.
*	*	*Xlig	*	*	*ij	*	*
.	.	1c	-xit	2r	.	.	.
*	*	*	*	*xywh-#302:1364,2935,4191,807	*	*	*
.	.	.	.	2G/	be-	2e\	te
!LO:LB:g=orignal	!	!	!	!	!	!	!
=30	=30	=30	=30	=30	=30	=30	=30
*xywh-#666:1191,1298,4185,861	*	*	*	*	*	*	*
1F	-us,	1c	te,	2A/	-ne-	1f	De-
.	.	.	.	4F/	-di-	.	.
.	.	.	.	4G/	.	.	.
*	*	*lig	*	*	*	*	*
1r	.	1c	De-	4A/	.	1e	-us,
.	.	.	.	4B/	.	.	.
.	.	.	.	1c	.	.	.
=31	=31	=31	=31	=31	=31	=31	=31
*	*	*custos:c	*	*	*	*	*
2r	.	1d	.	.	.	2r	.
2G\	in	.	.	2B\	-xit	2g\	in
!	!	!LO:LB:g=orignal	!	!	!	!	!
*	*	*Xlig	*	*	*	*	*
*	*	*xywh-#489:5924,1354,4224,814	*	*	*	*	*
2A\	(ae)-	1c	-us	1A	te	2e\	.
4F\	-ter-	.	.	.	.	2.f\	(ae)-
4G\	.	.	.	.	.	.	.
=32	=32	=32	=32	=32	=32	=32	=32
*	*	*lig	*	*	*	*	*
4A\	.	1c	.	2F/	De-	.	.
4B\	.	.	.	.	.	4d\	-ter-
1c	.	.	.	2A/	.	4e\	.
.	.	.	.	.	.	4f\	.
.	.	1G	.	2G/	.	1g	.
2B\	.	.	.	2d\	.	.	.
*	*	*Xlig	*	*	*	*	*
=33	=33	=33	=33	=33	=33	=33	=33
*	*	*lig	*	*	*	*	*
2A\	.	1A	in	1c	-us	2e\	.
2F\	.	.	.	.	.	2f\	.
1A	.	1c	.	1r	.	1e	-nu(m),
*	*	*Xlig	*	*	*	*	*
=34	=34	=34	=34	=34	=34	=34	=34
*	*	*lig	*	*	*	*	*ij
1G	-nu(m),	1d	.	2r	.	2r	.
*	*	*	*	*	*	*custos:e	*
.	.	.	.	2G/	be-	2g\	in
*	*	*	*	*	*	*xywh-#116:1484,2899,4096,845	*
!	!	!	!	!	!	!LO:LB:g=orignal	!
1r	.	1c	.	2A/	-ne-	2e\	(ae)-
.	.	.	.	4F/	-di-	1f	-ter-
.	.	.	.	4G/	.	.	.
*	*	*Xlig	*	*	*	*	*
=35	=35	=35	=35	=35	=35	=35	=35
*	*ij	*lig	*	*	*	*	*
1r	.	1c	(ae)-	4A/	.	.	.
.	.	.	.	4B/	.	.	.
.	.	.	.	1c	.	2e\	.
2r	.	1G	.	.	.	1d	.
*	*	*	*	*custos:A	*	*	*
2G\	in	.	.	2B/	-xit	.	.
*	*	*Xlig	*	*	*	*	*
!	!	!	!	!LO:LB:g=orignal	!	!	!
=36	=36	=36	=36	=36	=36	=36	=36
*	*	*lig	*	*	*	*	*
*	*	*	*	*xywh-#302:6037,646,4234,886	*	*	*
2A\	(ae)-	1c	.	1A	te	1c	-nu(m)
2F\	.	.	.	.	.	.	.
2G\	-ter-	1B	.	4G/	De-	2r	.
.	.	.	.	4d\	.	.	.
*	*	*	*	*	*	*	*Xij
2E/	.	.	.	2e\	-us	2g\	in
*	*	*Xlig	*	*	*Xij	*	*
=37	=37	=37	=37	=37	=37	=37	=37
*	*	*lig	*	*	*	*	*
2F\	.	1A	-ter-	2c\	in	2a\	.
2D/	.	.	.	2d\	(ae)-	2f\	(ae)-
*custos:C	*	*	*	*	*	*	*
2E/	.	1G	.	2B/	-ter-	2g\	-ter-
*xywh-#666:1180,2080,4220,838	*	*	*	*	*	*	*
!LO:LB:g=orignal	!	!	!	!	!	!	!
2C/	.	.	.	1c	.	2e\	.
*	*	*Xlig	*	*	*	*	*
=38	=38	=38	=38	=38	=38	=38	=38
*	*	*lig	*	*	*	*	*
1G	-nu(m)	1G	-num,	.	.	2d/	.
.	.	.	.	2B/	.	1g	.
2r	.	1A	.	2c\	.	.	.
2D/	in	.	.	2d\	-num,	2f\	.
*	*	*Xlig	*	*	*	*	*
=39	=39	=39	=39	=39	=39	=39	=39
*	*	*lig	*	*	*ij	*	*
2E/	(ae)-	1G	.	2B/	(ae)-	1g	-nu(m),
2C/	.	.	.	2c\	-ter-	.	.
1D	-ter-	1F	.	2A/	-num/	2r	.
.	.	.	.	2A/	et	2d/	et
*	*	*Xlig	*	*	*	*	*
=40	=40	=40	=40	=40	=40	=40	=40
*	*	*lig	*	*	*	*	*
2GG/	-nu(m),	1D	et	2B/	in	2d/	in
2D/	et	.	.	1d	ſe-	1f	ſe-
2D/	in	1A	.	.	.	.	.
1F	ſe-	.	.	4c\	-cu-	4e\	.
*	*	*	*	*	*	*custos:c	*
.	.	.	.	4B\	.	4d/	.
!	!	!	!	!	!	!	!
*	*	*Xlig	*	*	*	*	*
!	!	!	!	!	!	!LO:LB:g=orignal	!
=41	=41	=41	=41	=41	=41	=41	=41
*	*	*lig	*	*	*	*	*
*	*	*	*	*	*	*xywh-#116:6115,656,4125,851	*
.	.	1A	in	2A/	-lum,	2.c/	.
4E/	.	.	.	2F/	.	.	.
4D/	.	.	.	.	.	4d/	.
*	*	*	*	*custos:G	*	*	*
1C	.	1c	.	1G	.	4e/	.
.	.	.	.	.	.	4f\	.
.	.	.	.	.	.	4g\	.
.	.	.	.	.	.	4e\	.
*	*	*Xlig	*	*	*	*	*
!	!	!	!	!LO:LB:g=orignal	!	!	!
=42	=42	=42	=42	=42	=42	=42	=42
*	*	*lig	*	*	*	*	*
2D/	.	1B	.	2r	.	2f\	.
*	*	*	*	*xywh-#302:6049,1454,4191,801	*	*	*
2E\	.	.	.	2G/	et	1e	.
*	*	*custos:G	*	*	*	*	*
1F	.	1A	.	2.A/	in	.	.
.	.	.	.	.	.	2d/	-cu-
.	.	.	.	4B\	.	.	.
!	!	!LO:LB:g=orignal	!	!	!	!	!
*	*	*Xlig	*	*	*	*	*
=43	=43	=43	=43	=43	=43	=43	=43
*	*	*lig	*	*	*	*	*
*	*	*xywh-#489:5930,2088,4235,809	*	*	*	*	*
1E	-cu-	1G	ſe-	2c\	.	1e	-lu(m)
.	.	.	.	2B\	.	.	.
2AA/	-lu(m)	1c	.	2A/	ſe-	2.e/	ſe-
2.AA/	ſe-	.	.	2A/	-cu-	.	.
.	.	.	.	.	.	4d/	.
*	*	*Xlig	*	*	*	*	*
=44	=44	=44	=44	=44	=44	=44	=44
*	*	*lig	*	*	*	*	*
.	.	1c	-cu-	1A	-lu(m)	4c/	.
4BB/	.	.	.	.	.	4B/	.
2C/	.	.	.	.	.	1A	.
*custos:AA	*	*	*	*	*	*	*
1BB	-cu-	1d	.	2.D/	ſe-	.	.
.	.	.	.	.	.	2G/	-cu-
.	.	.	.	4E/	-cu-	.	.
*	*	*Xlig	*	*	*	*	*
!LO:LB:g=orignal	!	!	!	!	!	!	!
=45	=45	=45	=45	=45	=45	=45	=45
*xywh-#666:1195,2828,4214,935	*	*	*	*	*	*	*
0AA	-li,	1c	-lum	2F/	-li	4A/	-li,
.	.	.	.	.	.	4B/	.
.	.	.	.	2E/	ſe-	4c/	.
*	*	*	*	*	*	*custos:e	*
.	.	.	.	.	.	4d/	.
*	*	*	*	*	*	*xywh-#116:6103,1432,4165,805	*
!	!	!	!	!	!	!LO:LB:g=orignal	!
.	.	1c	.	2A/	-cu-	0e	.
.	.	.	.	1A	-lu(m)	.	.
=46	=46	=46	=46	=46	=46	=46	=46
*	*	*lig	*	*	*	*	*
2r	.	1c	ſe-	.	.	.	.
2A\	in	.	.	1c	ſe-	.	.
2F\	ſe-	1d	.	.	.	2r	.
2G\	-cu-	.	.	2B\	-cu-	2g\	in
*	*	*Xlig	*	*	*	*	*
=47	=47	=47	=47	=47	=47	=47	=47
*	*	*lig	*	*	*	*	*
2A\	-lu(m),	1c	.	1A	-li	1.e	ſe-
*	*	*	*	*	*	*	*
2AA/	in	.	.	.	.	.	.
2C/	ſe-	1G	.	1r	.	.	.
2BB/	.	.	.	.	.	2d/	-cu-
*	*	*Xlig	*	*	*	*	*
=48	=48	=48	=48	=48	=48	=48	=48
*	*	*lig	*	*	*	*	*
2AA/	-cu-	1A	.	2r	.	1c	-lu(m),
1A	-lum	.	.	1c	ſe-	.	.
.	.	1c	.	.	.	2r	.
*	*Xij	*	*	*	*	*	*ij
2F\	in	.	.	2A/	-cu-	1f	et
*	*	*Xlig	*	*	*	*	*
=49	=49	=49	=49	=49	=49	=49	=49
*	*	*lig	*	*	*	*	*
*	*	*	*	*custos:B	*	*	*
2D/	ſe-	1d	.	2B/	.	.	.
*	*	*	*	*xywh-#302:6049,2195,4197,832	*	*	*
!	!	!	!	!LO:LB:g=orignal	!	!	!
1G	-cu-	.	.	2B\	-lu(m)	2d/	in
.	.	1B	.	1.G	ſe-	1g	ſe-
2E\	-lu(m)	.	.	.	.	.	.
*	*	*Xlig	*	*	*	*	*
=50	=50	=50	=50	=50	=50	=50	=50
2C/	.	1c	.	.	.	2e\	-cu-
1F	ſE-	.	.	2A/	-cu-	2c/	-lu(m)
*	*	*lig	*	*	*	*	*
.	.	1A	.	2D/	-li	1f	ſe-
*	*	*	*	*	*Xij	*	*
2D/	-cu-	.	.	2d\	et	.	.
=51	=51	=51	=51	=51	=51	=51	=51
2E/	-li	1G	.	2B\	in	1e	-cu-
*	*ij	*	*	*	*	*	*
2C/	ſe-	.	.	2c\	ſe-	.	.
*	*	*Xlig	*	*	*	*	*
*	*	*lig	*	*	*	*	*
1D	.	1F	-cu-	1A	-cu-	1d	-li
=52	=52	=52	=52	=52	=52	=52	=52
*custos:GG	*	*	*	*	*	*	*
1GG	-cu-	1G	.	1B	-lu(m),	2r	.
.	.	.	.	.	.	1g	et
*	*	*Xlig	*	*	*	*	*
*	*	*lig	*	*	*	*	*
*xywh-#666:5879,684,4157,826	*	*	*	*	*	*	*
!LO:LB:g=orignal	!	!	!	!	!	!	!
1GG	-li	1G	-li	2r	.	.	.
.	.	.	.	2d\	et	4f\	in
.	.	.	.	.	.	4e\	.
*	*Xij	*	*	*	*	*	*
=53	=53	=53	=53	=53	=53	=53	=53
*	*	*custos:c	*	*	*	*	*
2r	.	1B	.	2B/	in	1d	ſe-
2G\	et	.	.	2G/	.	.	.
!	!	!LO:LB:g=orignal	!	!	!	!	!
*	*	*Xlig	*	*	*	*	*
*	*	*lig	*	*	*	*	*
*	*	*xywh-#489:5909,2834,1820,722	*	*	*	*	*
2E/	in	1c	.	2G/	ſe-	2e\	.
*	*	*	*	*	*	*custos:f	*
2C/	ſe-	.	.	2.e\	-cu-	1g	-cu-
!	!	!	!	!	!	!LO:LB:g=orignal	!
=54	=54	=54	=54	=54	=54	=54	=54
1D	-cu-	1A	.	.	.	.	.
.	.	.	.	4d\	.	.	.
*	*	*	*	*	*	*xywh-#116:6092,2168,4182,857	*
.	.	.	.	1d	.	2f\	.
*	*	*Xlig	*	*	*	*	*
1E	-lu(m)	1G	.	.	.	2e\	-lu(m)
.	.	.	.	2c\	.	1g	ſe-
=55	=55	=55	=55	=55	=55	=55	=55
*lig	*	*lig	*	*	*	*	*
1D	ſe-	1A	.	2d\	-lu(m)	.	.
*	*	*	*	*custos:E	*	*	*
.	.	.	.	2D/	ſe-	2f\	.
*	*	*	*	*xywh-#302:6049,2950,3177,880	*	*	*
!	!	!	!	!LO:LB:g=orignal	!	!	!
1C	.	1c	.	2E/	.	1e	-cu-
.	.	.	.	1G	.	.	.
*Xlig	*	*Xlig	*	*	*	*	*
=56	=56	=56	=56	=56	=56	=56	=56
*	*	*lig	*	*	*	*	*
1D	-cu-	1A	.	.	.	2d/	-li
*	*	*	*	*	*	*	*Xij
.	.	.	.	2F/	-cu-	2d/	in
1GG	-li,	[1G;l\	.	2G/	-li,	2B/	ſe-
.	.	.	.	2d\	.	2G/	-cu-
*	*	*Xlig	*	*	*	*	*
=57	=57	=57	=57	=57	=57	=57	=57
2r	.	0G_	.	2B\	in	2G/	-lu(m)
2G\	in	.	.	2G/	ſe-	2.g\	ſe-
2E/	ſe-	.	.	2G/	-cu-	.	.
.	.	.	.	.	.	4f\	.
2C/	-cu-	.	.	1c	-lum	4e\	.
.	.	.	.	.	.	4d\	.
=58	=58	=58	=58	=58	=58	=58	=58
2C/	-lum	0G_	.	.	.	2c/	-cu-
1C	ſ(e)-	.	.	4B\	.	1e	-li,
.	.	.	.	4A/	.	.	.
.	.	.	.	2G/	ſe-	.	.
2C/	-c(u)-	.	.	2c\	-cu-	4d/	.
.	.	.	.	.	.	4c/	.
=59	=59	=59	=59	=59	=59	=59	=59
0GGl	-li	0G]	.	0Bl	-li	0dl	.
==	==	==	==	==	==	==	==
*-	*-	*-	*-	*-	*-	*-	*-
!!!system-decoration: [(s1,s2,s3,s4)]
!!!RDF**kern: l = terminal long
!!!ENC: Mateusz Solarz
!!!END: 2022-02-25
!!!ENC: Natalia Wrzos
!!!END: 2022-03-12
!!!YEC: Copyright 2022 Narodowy Instytut Fryderyka Chopina (https://polishscores.org)
!!!YEM: License CC-BY-4.0 (https://creativecommons.org/licenses/by/4.0)
!!!IIIF: https://repozytorium.nifc.pl/islandora/object/pl-kk%3A1/datastream/IIIF/view
!!!ENC-iiif: Elżbieta Cabała
!!!END-iiif: 2022-09-03
